public/img/Hero/Infinix_Gaming.svg

<svg width="443" height="80" viewBox="0 0 443 80" fill="none" xmlns="http://www.w3.org/2000/svg">
<rect width="442.152" height="79" transform="translate(0.152344 0.4729)"/>
<path d="M64.5275 15.9187C57.6287 15.9187 51.4066 18.8973 47.0524 23.6468L54.8458 35.5204C56.5237 31.8099 60.2316 29.2253 64.5275 29.2253C70.3972 29.2253 75.1722 34.0464 75.1722 39.973C75.1722 45.8995 70.3972 50.7206 64.5275 50.7206C60.5585 50.7206 57.2764 48.4048 55.264 45.2572C45.0122 29.2253 46.5582 31.4798 43.2406 26.2492C42.4346 24.9774 41.4665 23.6596 41.2232 23.4011C36.8816 18.795 30.7559 15.9187 23.9762 15.9187C10.8401 15.9187 0.152344 26.7099 0.152344 39.973C0.152344 53.2361 10.8401 64.0272 23.9762 64.0272C30.9105 64.0272 37.1604 61.0205 41.5172 56.2301L33.7769 44.1671C32.1549 48.0158 28.3735 50.7206 23.9762 50.7206C18.1064 50.7206 13.3315 45.8995 13.3315 39.973C13.3315 34.0464 18.1064 29.2253 23.9762 29.2253C27.8919 29.2253 31.2121 31.4388 33.1687 34.5633C41.2105 47.394 41.9581 48.3894 45.438 53.8451C46.3351 55.25 47.7849 57.0796 48.2588 57.5275C52.5192 61.5553 58.242 64.0272 64.5275 64.0272C77.6635 64.0272 88.3513 53.2361 88.3513 39.973C88.3513 26.7099 77.6635 15.9187 64.5275 15.9187Z" fill="#3649F1"/>
<path d="M110.888 65.4729V18.5384H119.455V65.4729H110.888ZM127.79 65.4729V31.2013H135.539V37.9422L134.909 36.7452C135.707 34.6873 137.009 33.1333 138.815 32.0833C140.663 30.9913 142.805 30.4453 145.241 30.4453C147.761 30.4453 149.987 30.9913 151.919 32.0833C153.893 33.1753 155.426 34.7083 156.518 36.6822C157.61 38.6142 158.156 40.8612 158.156 43.4232V65.4729H149.903V45.3761C149.903 43.8642 149.609 42.5622 149.021 41.4702C148.433 40.3782 147.614 39.5382 146.564 38.9502C145.556 38.3202 144.359 38.0052 142.973 38.0052C141.629 38.0052 140.432 38.3202 139.382 38.9502C138.332 39.5382 137.513 40.3782 136.925 41.4702C136.337 42.5622 136.043 43.8642 136.043 45.3761V65.4729H127.79ZM169.103 65.4729V38.5722H163.055V31.2013H169.103V30.0673C169.103 27.4633 169.628 25.2584 170.678 23.4524C171.77 21.6044 173.282 20.1974 175.214 19.2314C177.146 18.2655 179.435 17.7825 182.081 17.7825C182.585 17.7825 183.131 17.8245 183.719 17.9085C184.349 17.9505 184.874 18.0135 185.294 18.0975V25.2164C184.874 25.1324 184.475 25.0904 184.097 25.0904C183.761 25.0484 183.446 25.0274 183.152 25.0274C181.304 25.0274 179.876 25.4474 178.868 26.2874C177.86 27.0853 177.356 28.3453 177.356 30.0673V31.2013H192.35V38.5722H177.356V65.4729H169.103ZM189.263 65.4729V31.2013H197.579V65.4729H189.263ZM204.447 65.4729V31.2013H212.196V37.9422L211.566 36.7452C212.364 34.6873 213.666 33.1333 215.472 32.0833C217.32 30.9913 219.462 30.4453 221.898 30.4453C224.418 30.4453 226.644 30.9913 228.576 32.0833C230.55 33.1753 232.083 34.7083 233.175 36.6822C234.267 38.6142 234.813 40.8612 234.813 43.4232V65.4729H226.56V45.3761C226.56 43.8642 226.266 42.5622 225.678 41.4702C225.09 40.3782 224.271 39.5382 223.221 38.9502C222.213 38.3202 221.016 38.0052 219.63 38.0052C218.286 38.0052 217.089 38.3202 216.039 38.9502C214.989 39.5382 214.17 40.3782 213.582 41.4702C212.994 42.5622 212.7 43.8642 212.7 45.3761V65.4729H204.447ZM241.792 65.4729V31.2013H250.045V65.4729H241.792ZM241.792 27.3583V18.5384H250.045V27.3583H241.792ZM254.577 65.4729L266.547 48.2741L254.514 31.2013H264.216L273.603 45.0611H269.256L278.643 31.2013H288.282L276.312 48.2741L288.219 65.4729H278.58L269.319 51.6761H273.54L264.279 65.4729H254.577Z" fill="white"/>
<path d="M307.352 15.9182L307.352 64.0267" stroke="white" stroke-width="0.916353"/>
<path d="M335.087 35.7478C333.88 35.7478 332.765 35.534 331.742 35.1064C330.719 34.6635 329.833 34.0449 329.085 33.2507C328.336 32.4566 327.748 31.5249 327.321 30.4559C326.908 29.3868 326.702 28.2184 326.702 26.9508C326.702 25.6679 326.908 24.4919 327.321 23.4229C327.733 22.3538 328.313 21.4222 329.062 20.628C329.81 19.8338 330.696 19.2229 331.719 18.7953C332.742 18.3524 333.857 18.1309 335.064 18.1309C336.24 18.1309 337.294 18.3371 338.225 18.7495C339.172 19.1618 339.966 19.6964 340.608 20.3531C341.265 21.0098 341.73 21.7123 342.005 22.4607L339.989 23.4458C339.592 22.4531 338.974 21.6665 338.134 21.0862C337.294 20.5058 336.27 20.2156 335.064 20.2156C333.873 20.2156 332.811 20.4982 331.88 21.0632C330.963 21.6283 330.245 22.4149 329.726 23.4229C329.207 24.4308 328.947 25.6068 328.947 26.9508C328.947 28.2795 329.207 29.4479 329.726 30.4559C330.261 31.4639 330.986 32.2504 331.902 32.8155C332.834 33.3806 333.895 33.6631 335.087 33.6631C336.125 33.6631 337.065 33.4417 337.905 32.9987C338.745 32.5558 339.409 31.9449 339.898 31.166C340.386 30.3871 340.631 29.4861 340.631 28.4628V27.409L341.662 28.3712H335.064V26.4239H342.899V27.9359C342.899 29.1272 342.692 30.2039 342.28 31.166C341.868 32.1282 341.303 32.9529 340.585 33.6402C339.867 34.3122 339.035 34.8315 338.088 35.198C337.141 35.5645 336.141 35.7478 335.087 35.7478ZM344.237 35.4729L350.354 18.4058H353.011L359.128 35.4729H356.723L355.325 31.4639H348.04L346.643 35.4729H344.237ZM348.75 29.4021H354.615L351.362 20.0324H352.003L348.75 29.4021ZM361.279 35.4729V18.4058H363.34L369.732 27.5006H368.678L375.024 18.4058H377.086V35.4729H374.818V21.2465L375.619 21.4985L369.274 30.433H369.09L362.813 21.4985L363.524 21.2465V35.4729H361.279ZM380.876 35.4729V18.4058H383.121V35.4729H380.876ZM386.917 35.4729V18.4058H388.795L398.6 32.1969L397.753 32.2886V18.4058H400.021V35.4729H398.142L388.383 21.5902L389.162 21.4985V35.4729H386.917ZM411.711 35.7478C410.504 35.7478 409.389 35.534 408.366 35.1064C407.343 34.6635 406.457 34.0449 405.708 33.2507C404.96 32.4566 404.372 31.5249 403.944 30.4559C403.532 29.3868 403.326 28.2184 403.326 26.9508C403.326 25.6679 403.532 24.4919 403.944 23.4229C404.357 22.3538 404.937 21.4222 405.685 20.628C406.434 19.8338 407.32 19.2229 408.343 18.7953C409.366 18.3524 410.481 18.1309 411.688 18.1309C412.864 18.1309 413.917 18.3371 414.849 18.7495C415.796 19.1618 416.59 19.6964 417.232 20.3531C417.888 21.0098 418.354 21.7123 418.629 22.4607L416.613 23.4458C416.216 22.4531 415.597 21.6665 414.757 21.0862C413.917 20.5058 412.894 20.2156 411.688 20.2156C410.496 20.2156 409.435 20.4982 408.503 21.0632C407.587 21.6283 406.869 22.4149 406.35 23.4229C405.831 24.4308 405.571 25.6068 405.571 26.9508C405.571 28.2795 405.831 29.4479 406.35 30.4559C406.884 31.4639 407.61 32.2504 408.526 32.8155C409.458 33.3806 410.519 33.6631 411.711 33.6631C412.749 33.6631 413.688 33.4417 414.528 32.9987C415.368 32.5558 416.033 31.9449 416.521 31.166C417.01 30.3871 417.254 29.4861 417.254 28.4628V27.409L418.285 28.3712H411.688V26.4239H419.522V27.9359C419.522 29.1272 419.316 30.2039 418.904 31.166C418.492 32.1282 417.926 32.9529 417.209 33.6402C416.491 34.3122 415.658 34.8315 414.712 35.198C413.765 35.5645 412.764 35.7478 411.711 35.7478Z" fill="white"/>
</svg>

<svg width="443" height="80" fill="none" xmlns="http://www.w3.org/2000/svg"><path d="M.152.473h442.152v79H.152z"/><path d="M64.528 15.919c-6.9 0-13.121 2.978-17.476 7.728l7.794 11.873c1.678-3.71 5.386-6.295 9.682-6.295 5.87 0 10.644 4.821 10.644 10.748s-4.775 10.748-10.644 10.748c-3.97 0-7.252-2.316-9.264-5.464C45.012 29.225 46.558 31.48 43.241 26.25c-.806-1.272-1.774-2.59-2.018-2.848-4.341-4.606-10.467-7.482-17.247-7.482C10.84 15.919.152 26.709.152 39.973c0 13.263 10.688 24.054 23.824 24.054 6.934 0 13.184-3.007 17.541-7.797l-7.74-12.063c-1.622 3.849-5.404 6.554-9.8 6.554-5.87 0-10.646-4.821-10.646-10.748s4.775-10.748 10.645-10.748c3.916 0 7.236 2.214 9.193 5.338 8.042 12.831 8.79 13.826 12.269 19.282.897 1.405 2.347 3.235 2.82 3.683 4.261 4.027 9.984 6.5 16.27 6.5 13.135 0 23.823-10.792 23.823-24.055S77.663 15.919 64.528 15.919Z" fill="#3649F1"/><path d="M110.888 65.473V18.538h8.567v46.935h-8.567Zm16.902 0V31.2h7.749v6.741l-.63-1.197c.798-2.058 2.1-3.612 3.906-4.662 1.848-1.092 3.99-1.638 6.426-1.638 2.52 0 4.746.546 6.678 1.638a11.539 11.539 0 0 1 4.599 4.6c1.092 1.931 1.638 4.178 1.638 6.74v22.05h-8.253V45.376c0-1.512-.294-2.814-.882-3.906-.588-1.092-1.407-1.932-2.457-2.52-1.008-.63-2.205-.945-3.591-.945-1.344 0-2.541.315-3.591.945-1.05.588-1.869 1.428-2.457 2.52-.588 1.092-.882 2.394-.882 3.906v20.097h-8.253Zm41.313 0v-26.9h-6.048V31.2h6.048v-1.134c0-2.604.525-4.809 1.575-6.615a10.736 10.736 0 0 1 4.536-4.22c1.932-.966 4.221-1.45 6.867-1.45.504 0 1.05.043 1.638.127.63.042 1.155.105 1.575.189v7.118a6.11 6.11 0 0 0-1.197-.126 7.642 7.642 0 0 0-.945-.063c-1.848 0-3.276.42-4.284 1.26-1.008.798-1.512 2.058-1.512 3.78v1.134h14.994v7.371h-14.994v26.9h-8.253Zm20.16 0V31.2h8.316v34.272h-8.316Zm15.184 0V31.2h7.749v6.741l-.63-1.197c.798-2.058 2.1-3.612 3.906-4.662 1.848-1.092 3.99-1.638 6.426-1.638 2.52 0 4.746.546 6.678 1.638a11.539 11.539 0 0 1 4.599 4.6c1.092 1.931 1.638 4.178 1.638 6.74v22.05h-8.253V45.376c0-1.512-.294-2.814-.882-3.906-.588-1.092-1.407-1.932-2.457-2.52-1.008-.63-2.205-.945-3.591-.945-1.344 0-2.541.315-3.591.945-1.05.588-1.869 1.428-2.457 2.52-.588 1.092-.882 2.394-.882 3.906v20.097h-8.253Zm37.345 0V31.2h8.253v34.272h-8.253Zm0-38.115v-8.82h8.253v8.82h-8.253Zm12.785 38.115 11.97-17.199-12.033-17.073h9.702l9.387 13.86h-4.347l9.387-13.86h9.639l-11.97 17.073 11.907 17.199h-9.639l-9.261-13.797h4.221l-9.261 13.797h-9.702Z" fill="#fff"/><path d="M307.352 15.918v48.109" stroke="#fff" stroke-width=".916"/><path d="M335.087 35.748c-1.207 0-2.322-.214-3.345-.642a7.943 7.943 0 0 1-2.657-1.855 8.766 8.766 0 0 1-1.764-2.795c-.413-1.07-.619-2.238-.619-3.505 0-1.283.206-2.46.619-3.528.412-1.07.992-2 1.741-2.795a7.67 7.67 0 0 1 2.657-1.833c1.023-.443 2.138-.664 3.345-.664 1.176 0 2.23.206 3.161.619.947.412 1.741.946 2.383 1.603.657.657 1.122 1.36 1.397 2.108l-2.016.985c-.397-.993-1.015-1.78-1.855-2.36-.84-.58-1.864-.87-3.07-.87-1.191 0-2.253.282-3.184.847-.917.565-1.635 1.352-2.154 2.36-.519 1.008-.779 2.184-.779 3.528 0 1.328.26 2.497.779 3.505.535 1.008 1.26 1.794 2.176 2.36.932.565 1.993.847 3.185.847 1.038 0 1.978-.221 2.818-.664a5.13 5.13 0 0 0 1.993-1.833c.488-.779.733-1.68.733-2.703v-1.054l1.031.962h-6.598v-1.947h7.835v1.512c0 1.191-.207 2.268-.619 3.23a7.427 7.427 0 0 1-1.695 2.474 7.66 7.66 0 0 1-2.497 1.558 8.24 8.24 0 0 1-3.001.55Zm9.15-.275 6.117-17.067h2.657l6.117 17.067h-2.405l-1.398-4.01h-7.285l-1.397 4.01h-2.406Zm4.513-6.07h5.865l-3.253-9.37h.641l-3.253 9.37Zm12.529 6.07V18.406h2.061l6.392 9.095h-1.054l6.346-9.095h2.062v17.067h-2.268V21.247l.801.252-6.345 8.934h-.184l-6.277-8.934.711-.252v14.226h-2.245Zm19.597 0V18.406h2.245v17.067h-2.245Zm6.041 0V18.406h1.878l9.805 13.79-.847.093V18.406h2.268v17.067h-1.879l-9.759-13.883.779-.091v13.974h-2.245Zm24.794.275c-1.207 0-2.322-.214-3.345-.642a7.957 7.957 0 0 1-2.658-1.855 8.8 8.8 0 0 1-1.764-2.795c-.412-1.07-.618-2.238-.618-3.505 0-1.283.206-2.46.618-3.528.413-1.07.993-2 1.741-2.795a7.683 7.683 0 0 1 2.658-1.833c1.023-.443 2.138-.664 3.345-.664 1.176 0 2.229.206 3.161.619.947.412 1.741.946 2.383 1.603.656.657 1.122 1.36 1.397 2.108l-2.016.985c-.397-.993-1.016-1.78-1.856-2.36-.84-.58-1.863-.87-3.069-.87-1.192 0-2.253.282-3.185.847-.916.565-1.634 1.352-2.153 2.36-.519 1.008-.779 2.184-.779 3.528 0 1.328.26 2.497.779 3.505.534 1.008 1.26 1.794 2.176 2.36.932.565 1.993.847 3.185.847 1.038 0 1.977-.221 2.817-.664a5.123 5.123 0 0 0 1.993-1.833c.489-.779.733-1.68.733-2.703v-1.054l1.031.962h-6.597v-1.947h7.834v1.512c0 1.191-.206 2.268-.618 3.23a7.442 7.442 0 0 1-1.695 2.474 7.671 7.671 0 0 1-2.497 1.558 8.244 8.244 0 0 1-3.001.55Z" fill="#fff"/></svg>
